X: 9248
T: Dan Murphy's
R: slide
M: 12/8
K: Dmajor
|:D|DFA ded c2 A G3|B2 A GFG B2 A F2 E|
DFA ded c2 A G2 F|EFG ABc d3 d2:|
|:e|f2 d A2 d FGA f3|g2 e cBA G2 F E3|
f2 d A2 d FGA d2 D|EFG ABc d3 d2:|

